X:289
T: Yigen miansha bucheng xian
N: C1786
O: China, Jiangsu Jiangdu
S: III: 436]
R: Xiaodiao, Qiutiange, Geduanduan]
M: 2/4
L: 1/16
K: D
A2F2A2d2 | B8 | A2d2A2F2 | F2D6
E2D2E2F2 | A2B2A2E2 | E2B,4z2
A2^G2B2B2 | d2B2A2F2 | A2A2E4 | D8
A2BdBA^G2 | A8
A2BdBA^G2 | A8
A2AFA2B2 | d2dBA4
A2AFA2B2 | d4d2f2 | e2dBA2A^G | A8

